resources/svg/file-list-3-fill.svg

<svg fill="currentColor" viewBox="0 0 24 24" xmlns="http://www.w3.org/2000/svg"><path d="M19 22H5C3.34315 22 2 20.6569 2 19V3C2 2.44772 2.44772 2 3 2H17C17.5523 2 18 2.44772 18 3V15H22V19C22 20.6569 20.6569 22 19 22ZM18 17V19C18 19.5523 18.4477 20 19 20C19.5523 20 20 19.5523 20 19V17H18ZM6 7V9H14V7H6ZM6 11V13H14V11H6ZM6 15V17H11V15H6Z"/></svg>

<svg xmlns="http://www.w3.org/2000/svg" viewBox="0 0 24 24" fill="currentColor">
    <g>
        <path fill="none" d="M0 0h24v24H0z"/>
        <path d="M19 22H5a3 3 0 0 1-3-3V3a1 1 0 0 1 1-1h14a1 1 0 0 1 1 1v12h4v4a3 3 0 0 1-3 3zm-1-5v2a1 1 0 0 0 2 0v-2h-2zM6 7v2h8V7H6zm0 4v2h8v-2H6zm0 4v2h5v-2H6z"/>
    </g>
</svg>
